images/icons/SixFlashing.svg

<?xml version="1.0" encoding="UTF-8" standalone="no"?>
<!-- Created with Inkscape (http://www.inkscape.org/) -->

<svg
   width="43.017651mm"
   height="26.686867mm"
   viewBox="0 0 43.017651 26.686867"
   version="1.1"
   id="svg41680"
   inkscape:version="1.1.2 (b8e25be833, 2022-02-05)"
   sodipodi:docname="SixFlashing.svg"
   xmlns:inkscape="http://www.inkscape.org/namespaces/inkscape"
   xmlns:sodipodi="http://sodipodi.sourceforge.net/DTD/sodipodi-0.dtd"
   xmlns="http://www.w3.org/2000/svg"
   xmlns:svg="http://www.w3.org/2000/svg">
  <sodipodi:namedview
     id="namedview41682"
     pagecolor="#ffffff"
     bordercolor="#666666"
     borderopacity="1.0"
     inkscape:pageshadow="2"
     inkscape:pageopacity="0.0"
     inkscape:pagecheckerboard="0"
     inkscape:document-units="mm"
     showgrid="false"
     inkscape:zoom="0.69664703"
     inkscape:cx="25.120325"
     inkscape:cy="182.30179"
     inkscape:window-width="1920"
     inkscape:window-height="986"
     inkscape:window-x="-11"
     inkscape:window-y="-11"
     inkscape:window-maximized="1"
     inkscape:current-layer="layer1" />
  <defs
     id="defs41677">
    <rect
       x="87.562279"
       y="226.80066"
       width="37.321632"
       height="48.805195"
       id="rect2164-4-0-6-5" />
  </defs>
  <g
     inkscape:label="Layer 1"
     inkscape:groupmode="layer"
     id="layer1"
     transform="translate(-98.506586,-187.56833)">
    <path
       id="rect45-1-7-9-2"
       style="fill:#ffff00;fill-rule:evenodd;stroke:#ffffff;stroke-width:7.55906;stroke-miterlimit:4;stroke-dasharray:none;stroke-opacity:1"
       d="m 376.08789,712.69922 v 93.30469 h 38.75586 v -93.30469 z m 116.26953,0 v 93.30469 h 38.75781 v -93.30469 z m -29.32617,5.99414 c -6.62406,0 -12.42535,1.14593 -17.40234,3.4375 -4.977,2.25576 -9.04051,5.40708 -12.19141,9.45312 -3.32993,4.26088 -5.76504,9.13111 -7.30469,14.60938 -1.50384,5.47827 -2.25586,11.76203 -2.25586,18.85156 0,6.9105 0.82364,12.81728 2.47071,17.72266 1.68286,4.90538 4.06328,8.84453 7.14257,11.8164 2.4706,2.39899 5.31851,4.20839 8.54102,5.42579 3.22251,1.21739 6.80356,1.82617 10.74219,1.82617 7.76984,0 14.3212,-2.56143 19.65625,-7.68164 5.37085,-5.15603 8.05664,-11.79789 8.05664,-19.92578 0,-4.76216 -0.80671,-8.80875 -2.41797,-12.13868 -1.57545,-3.32993 -3.93699,-6.08538 -7.08789,-8.26953 -2.72124,-1.8977 -5.39009,-3.15107 -8.00391,-3.75976 -2.57801,-0.64451 -5.56721,-0.9668 -8.96875,-0.9668 -3.83121,0 -7.21432,0.48246 -10.15039,1.44922 -2.90026,0.93095 -5.8556,2.31063 -8.86328,4.13672 0.75192,-8.19951 3.42078,-14.69813 8.00391,-19.4961 4.58313,-4.83377 10.72364,-7.25195 18.42187,-7.25195 2.11254,0 4.17066,0.25067 6.17578,0.75195 2.04093,0.46548 3.56385,0.96682 4.56641,1.50391 h 0.53711 v -10.25781 c -1.46804,-0.46548 -2.91934,-0.78777 -4.35156,-0.9668 -1.43223,-0.17903 -3.20387,-0.26953 -5.31641,-0.26953 z m -11.54687,39.20898 c 2.18414,0 4.27808,0.1771 6.2832,0.53516 2.00512,0.35806 3.83145,1.11008 5.47851,2.25586 2.25576,1.61126 3.86723,3.50921 4.83399,5.69336 1.00256,2.18415 1.5039,4.94155 1.5039,8.27148 0,5.94375 -1.48711,10.50861 -4.45898,13.69532 -2.97187,3.1509 -7.05231,4.72656 -12.24414,4.72656 -2.25576,0 -4.35165,-0.35811 -6.28516,-1.07422 -1.8977,-0.75192 -3.66934,-1.91478 -5.3164,-3.49024 -2.04093,-1.8977 -3.6524,-4.47605 -4.83399,-7.73437 -1.14578,-3.29413 -1.71875,-7.77043 -1.71875,-13.42773 0,-1.10998 0.0169,-2.02217 0.0527,-2.73829 0.0358,-0.75192 0.0905,-1.52282 0.16211,-2.31054 2.75704,-1.50384 5.44282,-2.61397 8.05664,-3.33008 2.61381,-0.71611 5.44284,-1.07227 8.48633,-1.07227 z"
       transform="scale(0.26458333)" />
  </g>
</svg>

<?xml version="1.0" encoding="UTF-8" standalone="no"?>
<!-- Created with Inkscape (http://www.inkscape.org/) -->

<svg
   width="210mm"
   height="297mm"
   viewBox="0 0 210 297"
   version="1.1"
   id="svg41680"
   inkscape:version="1.1.2 (b8e25be833, 2022-02-05)"
   sodipodi:docname="SixFlashing.svg"
   xmlns:inkscape="http://www.inkscape.org/namespaces/inkscape"
   xmlns:sodipodi="http://sodipodi.sourceforge.net/DTD/sodipodi-0.dtd"
   xmlns="http://www.w3.org/2000/svg"
   xmlns:svg="http://www.w3.org/2000/svg">
  <sodipodi:namedview
     id="namedview41682"
     pagecolor="#ffffff"
     bordercolor="#666666"
     borderopacity="1.0"
     inkscape:pageshadow="2"
     inkscape:pageopacity="0.0"
     inkscape:pagecheckerboard="0"
     inkscape:document-units="mm"
     showgrid="false"
     inkscape:zoom="0.69664703"
     inkscape:cx="396.90114"
     inkscape:cy="561.25984"
     inkscape:window-width="1920"
     inkscape:window-height="986"
     inkscape:window-x="-11"
     inkscape:window-y="-11"
     inkscape:window-maximized="1"
     inkscape:current-layer="layer1" />
  <defs
     id="defs41677">
    <rect
       x="87.562279"
       y="226.80066"
       width="37.321632"
       height="48.805195"
       id="rect2164-4-0-6-5" />
  </defs>
  <g
     inkscape:label="Layer 1"
     inkscape:groupmode="layer"
     id="layer1">
    <path
       id="rect45-1-7-9-2"
       style="fill:#ffff00;fill-rule:evenodd;stroke:#ffffff;stroke-width:7.55906;stroke-miterlimit:4;stroke-dasharray:none;stroke-opacity:1"
       d="M 376.08789 712.69922 L 376.08789 806.00391 L 414.84375 806.00391 L 414.84375 712.69922 L 376.08789 712.69922 z M 492.35742 712.69922 L 492.35742 806.00391 L 531.11523 806.00391 L 531.11523 712.69922 L 492.35742 712.69922 z M 463.03125 718.69336 C 456.40719 718.69336 450.6059 719.83929 445.62891 722.13086 C 440.65191 724.38662 436.5884 727.53794 433.4375 731.58398 C 430.10757 735.84486 427.67246 740.71509 426.13281 746.19336 C 424.62897 751.67163 423.87695 757.95539 423.87695 765.04492 C 423.87695 771.95542 424.70059 777.8622 426.34766 782.76758 C 428.03052 787.67296 430.41094 791.61211 433.49023 794.58398 C 435.96083 796.98297 438.80874 798.79237 442.03125 800.00977 C 445.25376 801.22716 448.83481 801.83594 452.77344 801.83594 C 460.54328 801.83594 467.09464 799.27451 472.42969 794.1543 C 477.80054 788.99827 480.48633 782.35641 480.48633 774.22852 C 480.48633 769.46636 479.67962 765.41977 478.06836 762.08984 C 476.49291 758.75991 474.13137 756.00446 470.98047 753.82031 C 468.25923 751.92261 465.59038 750.66924 462.97656 750.06055 C 460.39855 749.41604 457.40935 749.09375 454.00781 749.09375 C 450.1766 749.09375 446.79349 749.57621 443.85742 750.54297 C 440.95716 751.47392 438.00182 752.8536 434.99414 754.67969 C 435.74606 746.48018 438.41492 739.98156 442.99805 735.18359 C 447.58118 730.34982 453.72169 727.93164 461.41992 727.93164 C 463.53246 727.93164 465.59058 728.18231 467.5957 728.68359 C 469.63663 729.14907 471.15955 729.65041 472.16211 730.1875 L 472.69922 730.1875 L 472.69922 719.92969 C 471.23118 719.46421 469.77988 719.14192 468.34766 718.96289 C 466.91543 718.78386 465.14379 718.69336 463.03125 718.69336 z M 451.48438 757.90234 C 453.66852 757.90234 455.76246 758.07944 457.76758 758.4375 C 459.7727 758.79556 461.59903 759.54758 463.24609 760.69336 C 465.50185 762.30462 467.11332 764.20257 468.08008 766.38672 C 469.08264 768.57087 469.58398 771.32827 469.58398 774.6582 C 469.58398 780.60195 468.09687 785.16681 465.125 788.35352 C 462.15313 791.50442 458.07269 793.08008 452.88086 793.08008 C 450.6251 793.08008 448.52921 792.72197 446.5957 792.00586 C 444.698 791.25394 442.92636 790.09108 441.2793 788.51562 C 439.23837 786.61792 437.6269 784.03957 436.44531 780.78125 C 435.29953 777.48712 434.72656 773.01082 434.72656 767.35352 C 434.72656 766.24354 434.74349 765.33135 434.7793 764.61523 C 434.8151 763.86331 434.86979 763.09241 434.94141 762.30469 C 437.69845 760.80085 440.38423 759.69072 442.99805 758.97461 C 445.61186 758.2585 448.44089 757.90234 451.48438 757.90234 z "
       transform="scale(0.26458333)" />
  </g>
</svg>
